resources/haticons/SVG/zapier.svg

<!-- Generated by IcoMoon.io -->
<svg version="1.1" xmlns="http://www.w3.org/2000/svg" width="24" height="24" viewBox="0 0 24 24">
<title>zapier</title>
<path fill="#ff4a00" d="M15 12.004c0 0.893-0.165 1.746-0.461 2.535-0.787 0.297-1.643 0.461-2.535 0.461h-0.009c-0.893 0-1.745-0.165-2.534-0.461-0.297-0.789-0.461-1.643-0.461-2.535v-0.009c0-0.893 0.164-1.745 0.461-2.534 0.789-0.297 1.642-0.461 2.534-0.461h0.009c0.893 0 1.748 0.164 2.535 0.462 0.297 0.788 0.461 1.641 0.461 2.535zM23.835 10h-7.005l4.948-4.952c-0.39-0.548-0.82-1.060-1.295-1.533-0.473-0.474-0.985-0.907-1.53-1.296l-4.954 4.949v-7.003c-0.649-0.104-1.313-0.165-1.995-0.165h-0.010c-0.68 0-1.346 0.061-1.995 0.165v7.005l-4.95-4.949c-0.549 0.386-1.060 0.821-1.534 1.294s-0.908 0.987-1.296 1.533l4.949 4.952h-7.003c0 0-0.165 1.316-0.165 1.995v0.009c0 0.68 0.061 1.348 0.165 1.995h7.005l-4.949 4.952c0.777 1.096 1.733 2.051 2.827 2.83l4.952-4.95v7.004c0.648 0.105 1.313 0.165 1.991 0.165h0.017c0.679 0 1.344-0.060 1.991-0.165v-7.004l4.952 4.95c0.548-0.375 1.060-0.812 1.529-1.29h0.005c0.473-0.465 0.906-0.976 1.296-1.531l-4.95-4.949h7.004c0.105-0.645 0.165-1.304 0.165-1.98v-0.031c0-0.678-0.060-1.343-0.165-1.99z"></path>
</svg>

<svg xmlns="http://www.w3.org/2000/svg" width="24" height="24"><path fill="#ff4a00" d="M15 12.004c0 .893-.165 1.746-.461 2.535a7.172 7.172 0 0 1-2.535.461h-.009a7.193 7.193 0 0 1-2.534-.461A7.18 7.18 0 0 1 9 12.004v-.009c0-.893.164-1.745.461-2.534A7.175 7.175 0 0 1 11.995 9h.009c.893 0 1.748.164 2.535.462.297.788.461 1.641.461 2.535zM23.835 10H16.83l4.948-4.952a12.052 12.052 0 0 0-2.825-2.829l-4.954 4.949V.165A12.577 12.577 0 0 0 12.004 0h-.01c-.68 0-1.346.061-1.995.165V7.17l-4.95-4.949a11.929 11.929 0 0 0-2.83 2.827L7.168 10H.165S0 11.316 0 11.995v.009c0 .68.061 1.348.165 1.995H7.17l-4.949 4.952a11.981 11.981 0 0 0 2.827 2.83L10 16.831v7.004a12.44 12.44 0 0 0 1.991.165h.017c.679 0 1.344-.06 1.991-.165v-7.004l4.952 4.95c.548-.375 1.06-.812 1.529-1.29h.005c.473-.465.906-.976 1.296-1.531l-4.95-4.949h7.004c.105-.645.165-1.304.165-1.98V12c0-.678-.06-1.343-.165-1.99z"/></svg>
